packages/foundations/assets/icons/functional/images/technology/qr_code_scan_24.svg

<svg width="24" height="24" viewBox="0 0 24 24" fill="none" xmlns="http://www.w3.org/2000/svg">
<g clip-path="url(#clip0_2214_6590)">
<path fill-rule="evenodd" clip-rule="evenodd" d="M14.5 8.00037V9.50037H16.001L16 8.00037H14.5ZM16 11.5004H14.5C13.397 11.5004 12.5 10.6034 12.5 9.50037V8.00037C12.5 6.89737 13.397 6.00037 14.5 6.00037H16C17.103 6.00037 18 6.89737 18 8.00037V9.50037C18 10.6034 17.103 11.5004 16 11.5004ZM17 14.5004H16V13.5004C16 12.9484 15.552 12.5004 15 12.5004H13.5C12.948 12.5004 12.5 12.9484 12.5 13.5004V15.0004C12.5 15.5524 12.948 16.0004 13.5 16.0004H14.5V17.0004C14.5 17.5524 14.948 18.0004 15.5 18.0004H17C17.552 18.0004 18 17.5524 18 17.0004V15.5004C18 14.9484 17.552 14.5004 17 14.5004ZM8.00001 14.5004V16.0004H9.50101L9.50001 14.5004H8.00001ZM9.50001 18.0004H8.00001C6.89701 18.0004 6.00001 17.1034 6.00001 16.0004V14.5004C6.00001 13.3974 6.89701 12.5004 8.00001 12.5004H9.50001C10.603 12.5004 11.5 13.3974 11.5 14.5004V16.0004C11.5 17.1034 10.603 18.0004 9.50001 18.0004ZM8.00001 8.00037V9.50037H9.50101L9.50001 8.00037H8.00001ZM9.50001 11.5004H8.00001C6.89701 11.5004 6.00001 10.6034 6.00001 9.50037V8.00037C6.00001 6.89737 6.89701 6.00037 8.00001 6.00037H9.50001C10.603 6.00037 11.5 6.89737 11.5 8.00037V9.50037C11.5 10.6034 10.603 11.5004 9.50001 11.5004ZM3.00201 8.97237C3.55401 8.97237 4.00201 8.52437 4.00201 7.97237C4.00001 7.31537 4.00001 6.65937 4.00201 6.00137C4.00501 4.85837 4.94701 4.00137 6.00201 4.00137C6.65901 4.00337 7.31601 4.00337 7.97301 4.00137C8.54801 4.00037 8.97301 3.51337 8.97301 3.00137C8.97301 2.44837 8.52501 2.00137 7.97301 2.00137C7.31601 2.00037 6.65901 2.00037 6.00201 2.00137C3.70701 2.00637 2.00201 3.85837 2.00201 6.00137C1.99901 6.66737 1.99901 7.32937 2.00201 7.98737C2.00301 8.55237 2.48901 8.97237 3.00201 8.97237ZM15.972 4.00237C16.648 4.00037 17.324 4.00037 18 4.00237C19.176 4.00537 20 4.94737 20 6.00237C19.989 6.65437 19.979 7.30637 19.972 7.95937C19.966 8.52637 20.445 8.96637 20.958 8.97337C21.51 8.98137 21.964 8.54037 21.972 7.98837C21.984 7.33037 21.993 6.67337 22 6.01637C22.025 3.76837 20.143 2.00237 18 2.00237C17.324 1.99937 16.648 1.99937 15.972 2.00237C15.382 2.00337 14.972 2.48937 14.972 3.00237C14.972 3.55437 15.42 4.00237 15.972 4.00237ZM20.998 14.9704C20.446 14.9704 19.998 15.4184 19.998 15.9704C20 16.6464 20 17.3234 19.998 17.9984C19.996 19.1204 19.053 19.9984 17.998 19.9984C17.322 19.9964 16.646 19.9964 15.97 19.9984C15.392 20.0004 14.97 20.4874 14.97 20.9984C14.97 21.5524 15.418 21.9984 15.97 21.9984C16.646 22.0004 17.322 22.0004 17.998 21.9984C20.295 21.9934 21.998 20.1414 21.998 17.9984C22.001 17.3234 22.001 16.6464 21.998 15.9704C21.996 15.3394 21.511 14.9704 20.998 14.9704ZM8.97201 20.9984C8.97201 21.5104 8.55401 21.9964 7.97201 21.9984C7.31501 22.0004 6.65901 22.0004 6.00201 21.9984C3.85901 21.9984 2.00601 20.2664 2.00201 17.9984C2.00001 17.3214 2.00001 16.6464 2.00201 15.9694C2.00201 15.4174 2.44801 14.9694 3.00201 14.9694C3.51301 14.9694 4.00001 15.3684 4.00201 15.9694C4.00301 16.6464 4.00301 17.3214 4.00201 17.9984C4.00201 19.0524 4.82801 19.9954 6.00201 19.9984C6.65901 20.0004 7.31501 20.0004 7.97201 19.9984C8.52401 19.9984 8.97201 20.4454 8.97201 20.9984Z" fill="#1A1C1F"/>
</g>
<defs>
<clipPath id="clip0_2214_6590">
<rect width="24" height="24" fill="white"/>
</clipPath>
</defs>
</svg>

<svg xmlns="http://www.w3.org/2000/svg" width="24" height="24" fill="none"><g clip-path="url(#a)"><path fill="#1A1C1F" fill-rule="evenodd" d="M14.5 8v1.5h1.501L16 8zm1.5 3.5h-1.5c-1.103 0-2-.897-2-2V8c0-1.103.897-2 2-2H16c1.103 0 2 .897 2 2v1.5c0 1.103-.897 2-2 2m1 3h-1v-1a1 1 0 0 0-1-1h-1.5a1 1 0 0 0-1 1V15a1 1 0 0 0 1 1h1v1a1 1 0 0 0 1 1H17a1 1 0 0 0 1-1v-1.5a1 1 0 0 0-1-1m-9 0V16h1.501L9.5 14.5zM9.5 18H8c-1.103 0-2-.897-2-2v-1.5c0-1.103.897-2 2-2h1.5c1.103 0 2 .897 2 2V16c0 1.103-.897 2-2 2M8 8v1.5h1.501L9.5 8zm1.5 3.5H8c-1.103 0-2-.897-2-2V8c0-1.103.897-2 2-2h1.5c1.103 0 2 .897 2 2v1.5c0 1.103-.897 2-2 2M3.002 8.972a1 1 0 0 0 1-1q-.003-.985 0-1.97c.003-1.144.945-2 2-2h1.971c.575-.002 1-.489 1-1a1 1 0 0 0-1-1q-.985-.003-1.971 0a3.99 3.99 0 0 0-4 4q-.004.998 0 1.985c.001.565.487.985 1 .985m12.97-4.97Q16.986 4 18 4.002c1.176.003 2 .945 2 2q-.017.978-.028 1.957a1.017 1.017 0 0 0 .986 1.014 1 1 0 0 0 1.014-.985q.018-.987.028-1.972c.025-2.248-1.857-4.014-4-4.014a229 229 0 0 0-2.028 0 1.001 1.001 0 0 0 0 2m5.026 10.968a1 1 0 0 0-1 1q.003 1.015 0 2.028c-.002 1.122-.945 2-2 2q-1.014-.003-2.028 0c-.578.002-1 .49-1 1a1 1 0 0 0 1 1q1.014.003 2.028 0a3.99 3.99 0 0 0 4-4q.004-1.013 0-2.028c-.002-.63-.487-1-1-1M8.972 20.998c0 .512-.418.998-1 1q-.985.003-1.97 0c-2.143 0-3.996-1.732-4-4a343 343 0 0 1 0-2.029 1 1 0 0 1 1-1 .996.996 0 0 1 1 1V18a1.99 1.99 0 0 0 2 2h1.97a1 1 0 0 1 1 1" clip-rule="evenodd"/></g><defs><clipPath id="a"><path fill="#fff" d="M0 0h24v24H0z"/></clipPath></defs></svg>
